X:1
T:Title
%%score { ( 1 4 ) | ( 2 3 ) }
L:1/8
M:6/8
K:Eb
V:1 treble nm="Grand Piano"
V:4 treble 
V:2 bass 
V:3 bass 
V:1
 z3 z2[Q:1/4=87] E | GGG GFE | BBG B2 E | [EG][EG]E [EG]2 [DF] | E3- E2 E | GGG GFE | BBG B2 G/G/ | %7
 F2 F =A2 F |[M:5/8] B-B- B3 |[M:1/8] B/B/ |[M:3/4] [Ge]2 [Ge] [Bd]2 [Ac] | B6 | [Ec]2 [Ec] B2 E | %13
 [DF]4- [DF][DF] | GG G[GB] [GB][GB] |[M:7/8] [Be][Be][Be] e3 E/F/ |[M:3/4] G2 [EB] [EG]2 [DF] | %17
[M:5/8] E-E- E3 |] %18
V:2
 z3 z2 [E,G,] | [E,B,E][E,B,E][E,B,E] [E,B,E][E,A,E][E,G,] | %2
 [E,G,E][E,G,E][E,B,E] [E,G,E]2 [E,G,] | [B,,B,][B,,B,][B,,G,] [B,,B,]2 [B,,A,] | %4
 [E,G,]3- [E,G,]2 [E,G,] | [E,B,E][E,B,E][E,B,E] [E,B,E][E,A,E][E,G,] | .E3 z3 | %7
 [F,B,D]2 [F,B,D] [F,CE]2 [F,=A,E] |[M:5/8] z2 C[K:treble] D2 |[M:1/8] [B,A]/[B,A]/ | %10
[M:3/4][K:bass] [E,B,]2 [E,B,] [E,E]2 [E,E] | z2 C .B,3 | [A,,A,]2 [C,A,] [E,G,E]2 [E,G,] | %13
 [B,,B,]4- [B,,B,][B,,B,] | [E,B,E][E,B,E] [E,B,E][E,E] [E,E][E,E] | %15
[M:7/8][K:treble] [G,E][G,E][G,E] [A,CA]3 [A,C]/[K:bass][A,CE]/ | %16
[M:3/4] [B,E]2 [B,,G,] [B,,B,]2 [B,,A,] |[M:5/8] G,2 A, G,2 |] %18
V:3
 x6 | x6 | x6 | x6 | x6 | x6 | [E,G,]-[E,G,E][E,B,E] [E,G,E]2 [E,B,E]/[E,B,E]/ | x6 | %8
[M:5/8] B,,-B,,- B,,3[K:treble] |[M:1/8] x |[M:3/4][K:bass] x6 | E,6 | x6 | x6 | x6 | %15
[M:7/8][K:treble] x13/2[K:bass] x/ |[M:3/4] x6 |[M:5/8] E,-E,- E,3 |] %18
V:4
 x6 | x6 | x6 | x6 | x6 | x6 | x6 | x6 |[M:5/8] [B,D]2 E F2 |[M:1/8] x |[M:3/4] x6 | [EG]2 A .G3 | %12
 x6 | x6 | x6 |[M:7/8] x7 |[M:3/4] x6 |[M:5/8] z2 C B,2 |] %18

